X: 42406
T: West Clare Railway, The
R: reel
M: 4/4
K: Adorian
EGAB c2AB|cBcd cAGD|EGAB cBcd|ecde cAAG|
EGAB c2AB|cBcd cAGD|EGAB cBcd|ecde cAAe||
aged c3e|aged cAAe|aged cBce|gfga gede|
aged c3e|aged cAAd|eaaa gedB|cded cAAG||

